X: 36
T: Pays de Haut
T: The High Country
R: reel
Z: 1997 by John Chambers &amp;lt;jc#eddie.mit.edu&amp;gt; http://eddie.mit.edu/~jc/music/abc/
M: C|
L: 1/8
K: D
|: fg \
| "D"afaf d2ef |  "A7"gege c2ef | gfed cABc |1 "D"defg a2 :|2 "D"df"A7"ec "D"d2 :|
|: AG \
| "D"FAdA FAdA | "G"GBdB GBdB | "A7"ABcd efec |1 "D"defg a2 :|2 "D"df"A7"ec "D"d2 :|
